X:1
T: Mr. George A. Young
C:William Marshall
R:Strathspey
Q: 128
K:Eb
M:4/4
L:1/16
|:B2|AGFE B,3E Ac3 B4|G3A B3e a3g f3F|B3A GE3 Ac3 B4|g3e gfed e4 e2B2|
AGFE B,3E Ac3 B4|G3A B3e a3g f3F|B3A GE3 Ac3 B4|g3e gfed e4 e2B,2|
G,3E B,3G E3B Ge3|B,3F D3B F3d Bf3|E3F Eg3 D3E Df3|e3B AGFE DEFD B,3A,|
G,3E B,3G E3B Ge3|B,3F D3B F3d Bf3|e3E cBAG ABcd e3E|FEDC B,CDB, E4 E2:|
